build/system/StreamingSolid.svg

<svg xmlns="http://www.w3.org/2000/svg" fill="none" viewBox="0 0 24 24" focusable="false"><path d="M0 0H24V24H0z"/><path fill="#74767B" fill-rule="evenodd" d="M21 16C21 17.3679 20.0845 18.5217 18.833 18.8828C18.7856 18.8962 18.7383 18.9087 18.6899 18.9199C18.4702 18.97 18.2402 19 18 19L13.75 19C13.3901 19 13.1001 18.7 13.1001 18.3301C13.1001 13.02 8.87988 8.70996 3.68994 8.70996C3.43018 8.70996 3.20996 8.57007 3.1001 8.3501C3.04004 8.25 3 8.12988 3 8C3.00781 6.87695 3.62988 5.88794 4.54834 5.37402C4.97852 5.13574 5.47363 5 6 5L18 5C19.5723 5 20.8623 6.20972 20.9897 7.74927C20.9961 7.82568 20.9995 7.92212 21 8L21 16ZM3 10.95C3 10.5911 3.29102 10.3 3.6499 10.3C8.07861 10.3 11.6689 13.8901 11.6689 18.3188C11.6689 18.678 11.3779 18.969 11.019 18.969C10.6597 18.969 10.3687 18.678 10.3687 18.3188C10.3687 14.6082 7.36084 11.6001 3.6499 11.6001C3.29102 11.6001 3 11.3091 3 10.95ZM3 13.7314C3 13.3723 3.29102 13.0815 3.6499 13.0815C6.54248 13.0815 8.8877 15.4263 8.8877 18.3188C8.8877 18.678 8.59668 18.969 8.2373 18.969C7.87842 18.969 7.5874 18.678 7.5874 18.3188C7.5874 16.1443 5.82471 14.3813 3.6499 14.3813C3.29102 14.3813 3 14.0903 3 13.7314ZM4.38477 18.9556C5.14258 18.9556 5.75635 18.3413 5.75635 17.5837C5.75635 16.8262 5.14258 16.2122 4.38477 16.2122C3.62744 16.2122 3.01318 16.8262 3.01318 17.5837C3.01318 18.3413 3.62744 18.9556 4.38477 18.9556Z"/></svg>

<svg xmlns="http://www.w3.org/2000/svg" fill="none" viewBox="0 0 24 24" focusable="false"><path fill="#74767B" fill-rule="evenodd" d="M21 16c0 1.36-.92 2.52-2.17 2.88l-.15.03c-.21.05-.44.09-.68.09h-4.25a.66.66 0 0 1-.65-.67c0-5.31-4.23-9.63-9.42-9.63-.25 0-.48-.13-.58-.35A.7.7 0 0 1 3 8c0-1.13.62-2.12 1.54-2.63C4.97 5.13 5.47 5 6 5h12c1.57 0 2.86 1.2 2.98 2.74.01.08.01.18.02.26zM3.64 10.3c-.35 0-.64.29-.64.65 0 .35.29.65.64.65 3.72 0 6.72 3 6.72 6.71 0 .36.29.65.65.65s.65-.29.65-.65c0-4.42-3.59-8.01-8.02-8.01M3 13.73c0-.36.29-.65.64-.65 2.9 0 5.24 2.34 5.24 5.23 0 .36-.29.65-.65.65s-.65-.29-.65-.65c0-2.17-1.76-3.93-3.94-3.93-.35 0-.64-.29-.64-.65m1.38 5.22c.76 0 1.37-.61 1.37-1.37s-.61-1.37-1.37-1.37-1.37.61-1.37 1.37.61 1.37 1.37 1.37"/></svg>
